dist/images/4_agenda.svg

<svg id="icons" xmlns="http://www.w3.org/2000/svg" viewBox="0 0 10 10"><style>.st0{fill:#f8f9fa}</style><title>Prancheta 2</title><path class="st0" d="M3.4 4.7h-.9v.8h.8l.1-.8zm-.2.6h-.4v-.4h.4v.4zm1.5-.6h-.8v.8h.8v-.8zm-.2.6h-.4v-.4h.4v.4zM6 4.7h-.8v.8H6v-.8zm-.2.6h-.4v-.4h.4v.4zm1.5.2v-.8h-.8v.8h.8zm-.6-.6h.4v.4h-.4v-.4zm-4.2 2h.8v-.8h-.8v.8zm.2-.6h.4v.4h-.3l-.1-.4zm1.1.6h.8v-.8h-.7l-.1.8zm.2-.6h.5v.4h-.4L4 6.3zM1.9 4.2H8v1.5h.2v-4H7v-.1c0-.2-.2-.4-.4-.4s-.4.1-.4.4v.6c0 .2.2.4.4.4s.4-.2.4-.4v-.3h1.1V4H1.9V1.9H3v.3c0 .2.2.4.4.4s.4-.2.4-.4v-.6c0-.2-.2-.4-.4-.4s-.4.1-.4.4v.2H1.7V8h3.4v-.3H1.9V4.2zm4.9-2c0 .1-.1.2-.2.1-.1 0-.1-.1-.1-.1v-.6c0-.1.1-.2.2-.2s.2.1.2.2v.6zm-3.6-.6c0-.1.1-.2.2-.1.1 0 .1.1.1.1v.6c0 .1-.1.2-.2.1-.1 0-.1-.1-.1-.1v-.6zm2.8.3H4v-.2h2v.2zm1 4c-.9 0-1.7.8-1.6 1.7 0 .9.8 1.7 1.7 1.6.9 0 1.6-.8 1.6-1.7 0-.9-.7-1.6-1.7-1.6zM7 9c-.8 0-1.4-.7-1.4-1.5s.7-1.4 1.5-1.4 1.4.7 1.4 1.5S7.9 9 7 9zm0-2.7h.2v1.3l.8.8-.1.1-.9-.9V6.3z"/></svg>

<?xml version="1.0" encoding="utf-8"?>
<!-- Generator: Adobe Illustrator 21.1.0, SVG Export Plug-In . SVG Version: 6.00 Build 0)  -->
<svg version="1.1" id="icons" xmlns="http://www.w3.org/2000/svg" xmlns:xlink="http://www.w3.org/1999/xlink" x="0px" y="0px"
	 viewBox="0 0 10 10" style="enable-background:new 0 0 10 10;" xml:space="preserve">
<style type="text/css">
	.st0{fill:#F8F9FA;}
</style>
<title>Prancheta 2</title>
<path class="st0" d="M3.4,4.7H2.5v0.8h0.8L3.4,4.7z M3.2,5.3H2.8V4.9h0.4V5.3z M4.7,4.7H3.9v0.8h0.8V4.7z M4.5,5.3H4.1V4.9h0.4V5.3z
	 M6,4.7H5.2v0.8H6V4.7z M5.8,5.3H5.4V4.9h0.4L5.8,5.3z M7.3,5.5V4.7H6.5v0.8H7.3z M6.7,4.9h0.4v0.4H6.7L6.7,4.9z M2.5,6.9h0.8V6.1
	H2.5L2.5,6.9z M2.7,6.3h0.4v0.4H2.8L2.7,6.3z M3.8,6.9h0.8V6.1H3.9L3.8,6.9z M4,6.3h0.5v0.4H4.1L4,6.3z M1.9,4.2h6.1v1.5h0.2v-4H7
	V1.6c0-0.2-0.2-0.4-0.4-0.4S6.2,1.3,6.2,1.6v0.6c0,0.2,0.2,0.4,0.4,0.4S7,2.4,7,2.2V1.9h1.1V4H1.9V1.9H3v0.3c0,0.2,0.2,0.4,0.4,0.4
	s0.4-0.2,0.4-0.4V1.6c0-0.2-0.2-0.4-0.4-0.4S3,1.3,3,1.6v0.2H1.7v6.2h3.4V7.7H1.9V4.2z M6.8,2.2c0,0.1-0.1,0.2-0.2,0.1
	c-0.1,0-0.1-0.1-0.1-0.1V1.6c0-0.1,0.1-0.2,0.2-0.2l0,0c0.1,0,0.2,0.1,0.2,0.2c0,0,0,0,0,0V2.2z M3.2,1.6c0-0.1,0.1-0.2,0.2-0.1
	c0.1,0,0.1,0.1,0.1,0.1v0.6c0,0.1-0.1,0.2-0.2,0.1c-0.1,0-0.1-0.1-0.1-0.1V1.6z M6,1.9H4V1.7h2V1.9z M7,5.9c-0.9,0-1.7,0.8-1.6,1.7
	c0,0.9,0.8,1.7,1.7,1.6c0.9,0,1.6-0.8,1.6-1.7C8.7,6.6,8,5.9,7,5.9C7,5.9,7,5.9,7,5.9z M7,9C6.2,9,5.6,8.3,5.6,7.5
	c0-0.8,0.7-1.4,1.5-1.4c0.8,0,1.4,0.7,1.4,1.5C8.5,8.4,7.9,9,7,9C7,9,7,9,7,9z M7,6.3h0.2v1.3L8,8.4L7.9,8.5L7,7.6V6.3z"/>
</svg>
